X:722
T:Reel 722
M:4/4
K:Cmaj
L:1/8
EF|G2EC DCA,C|G,CEC F2ED|C2EC DCA,A|GFEG F2ED|C2EC DCA,C|G,CEC F2ED|CDEG ABcA|GECE D2CE|G2GE FEFA|GFEC DECD|EGGE FEEC|GFEC D2EG|G2GE F2AF|EGGE DCA,C|EGAB cBcA|GECE D2CD|EGGc AFFA|GEEC FDD2|EGGE FGAc|GEDE D2C2|EGGE FAAF|EGGE F2D2|EGGc ABcA|GECE D2C2|
